X:21193 
T:TINKER'S REEL, The 
B:DMI.0782
Z:Nordberg/Black
R:reel
%Q:1/4=180
M:C|
L:1/8
K:D
F2EF D3E|FDED FDED|FDEF D3E|FABc dBAG|
F2EF D3E|FDED FDED|FGEF D2DE|FABc d2cd||
edBd egfe|fdAd fgaf|edBd egfe|dBAF GFEd|
edBd egfe|fdad bdad|gbge fafd|edBA dBAG||
"final" HD4z4|]

%%%

